mobile/24/svg/logo-chrome-24.svg

<svg width="24" height="24" viewBox="0 0 24 24" fill="none" xmlns="http://www.w3.org/2000/svg">
<path fill-rule="evenodd" clip-rule="evenodd" d="M2 12C2 6.477 6.477 2 12 2C17.523 2 22 6.477 22 12C22 17.523 17.523 22 12 22C6.477 22 2 17.523 2 12ZM19.2138 8C17.8038 5.46724 15.0986 3.75 12 3.75C9.49695 3.75 7.25065 4.87053 5.73639 6.63631L8.182 10.871C8.671 9.215 10.186 8 12 8H19.2138ZM19.7788 9.25H14.893C15.575 9.967 16 10.932 16 12C16 12.835 15.743 13.61 15.304 14.252L11.8418 20.2485C11.8944 20.2495 11.9471 20.25 12 20.25C16.549 20.25 20.25 16.549 20.25 12C20.25 11.0362 20.0839 10.1105 19.7788 9.25ZM10.4792 20.1095L12.919 15.884C12.623 15.954 12.318 16 12 16C10.603 16 9.377 15.281 8.661 14.196L8.659 14.197L4.9339 7.74545C4.18264 8.98848 3.75 10.4447 3.75 12C3.75 16.0296 6.65408 19.3938 10.4792 20.1095ZM12 14.75C13.516 14.75 14.75 13.516 14.75 12C14.75 10.484 13.516 9.25 12 9.25C10.484 9.25 9.25 10.484 9.25 12C9.25 12.565 9.422 13.091 9.715 13.528L9.721 13.538C10.216 14.269 11.053 14.75 12 14.75Z" fill="black"/>
</svg>

<svg width="24" height="24" fill="none" xmlns="http://www.w3.org/2000/svg"><path fill-rule="evenodd" clip-rule="evenodd" d="M2 12C2 6.477 6.477 2 12 2s10 4.477 10 10-4.477 10-10 10S2 17.523 2 12zm17.214-4A8.257 8.257 0 0 0 12 3.75a8.235 8.235 0 0 0-6.264 2.886l2.446 4.235C8.671 9.215 10.186 8 12 8h7.214zm.565 1.25h-4.886a3.978 3.978 0 0 1 .411 5.002l-3.462 5.996c.052.002.105.002.158.002 4.549 0 8.25-3.701 8.25-8.25 0-.964-.166-1.89-.471-2.75zm-9.3 10.86 2.44-4.226c-.296.07-.601.116-.919.116a3.995 3.995 0 0 1-3.339-1.804l-.002.001-3.725-6.452A8.2 8.2 0 0 0 3.75 12c0 4.03 2.904 7.394 6.73 8.11zM12 14.75A2.754 2.754 0 0 0 14.75 12 2.754 2.754 0 0 0 12 9.25 2.754 2.754 0 0 0 9.25 12c0 .565.172 1.091.465 1.528l.006.01A2.75 2.75 0 0 0 12 14.75z" fill="#000"/></svg>
